X: 16135
T: Green Grow The Rushes
R: barndance
M: 4/4
K: Gmajor
M:2/4
|:G2 GA|BG G2|AB B/c/d|eA A2|
B/c/d ec|Bc dB|Ac BA|B/A/G G2:|
|:g>f gf|ed d2|ea ag|f/e/d e2|
g>f gf|ed Bd|Ac BA|B/A/G G2:|

